usr/share/icons/biglinux-icons-material/scalable/apps/yad.svg

<svg xmlns="http://www.w3.org/2000/svg" xml:space="preserve" width="24" height="24" viewBox="0 0 6.35 6.35"><defs><radialGradient id="a" cx="0" cy="0" r="1" fx="0" fy="0" gradientTransform="matrix(0 16.5 -16.5 0 9 .75)" gradientUnits="userSpaceOnUse" spreadMethod="pad"><stop offset="0" style="stop-opacity:1;stop-color:#10d996"/><stop offset="1" style="stop-opacity:1;stop-color:#0bae84"/></radialGradient></defs><path d="M7.195.836c.09 0 .176-.012.258-.035a23.86 23.86 0 0 1 3.231.008 10.26 10.26 0 0 1 2.836.636c1.519.625 2.558 1.711 3.121 3.254.316.93.507 1.887.566 2.867a21.227 21.227 0 0 1-.086 3.696 8.976 8.976 0 0 1-.672 2.488c-.637 1.383-1.672 2.336-3.101 2.859a11.693 11.693 0 0 1-3.575.618 15.998 15.998 0 0 1-4.089-.309c-2.481-.551-4.016-2.066-4.594-4.543a14.244 14.244 0 0 1-.336-3.383c-.027-1.215.101-2.41.387-3.59.609-2.312 2.078-3.746 4.406-4.3A10.27 10.27 0 0 1 7.195.836Z" style="fill:url(#a);fill-rule:evenodd;stroke:none" transform="scale(.35277)"/><path d="M8.352 3.375a5.064 5.064 0 0 0-.95.066.519.519 0 0 0-.433.43c-.102.664-.008 1.422-.008 2.098 0 .363.082.836-.016 1.187-.121.449-.472.906-.695 1.317-.512.949-1.031 1.894-1.535 2.847-.395.746-1.141 1.625-.723 2.504.418.887 1.371.754 2.188.754h4.664c.718 0 1.586.129 2.285-.039.652-.16 1.101-.832.984-1.496-.078-.438-.347-.84-.562-1.223-.281-.492-.531-1.004-.809-1.5-.414-.734-.808-1.48-1.203-2.222-.16-.305-.449-.66-.5-1.004-.121-.797-.008-1.699-.008-2.504 0-.309.086-.75-.14-.992-.227-.239-.625-.168-.922-.168-.512 0-1.074-.051-1.617-.055Zm-.2 4.121c.477.004.66.77.125.926-.574.164-.847-.723-.281-.899a.47.47 0 0 1 .156-.027Zm-.011 1.66c.843-.011 1.082 1.309.168 1.516-.957.223-1.313-1.285-.344-1.496a.905.905 0 0 1 .176-.02Zm1.351 1.192c.465.007.649.757.133.922-.586.183-.875-.715-.285-.899a.54.54 0 0 1 .152-.023Zm-2.82.586c.32-.008.68.14.949.242.758.281 1.508.722 2.348.64a3.131 3.131 0 0 0 1-.3c.25-.118.5-.297.785-.18.215.09.308.293.418.484.223.391.816 1.2.144 1.492-.433.188-1.191.043-1.66.043H7.18c-.426 0-1.106.129-1.5-.043-.766-.332.09-1.41.328-1.835.113-.196.219-.438.453-.512a.748.748 0 0 1 .211-.031z" style="fill:#dbf7ee;fill-opacity:1;fill-rule:nonzero;stroke:none" transform="scale(.35277)"/></svg>

<?xml version="1.0" encoding="UTF-8" standalone="no"?>
<svg
   width="24"
   height="24"
   viewBox="0 0 6.349875 6.349875"
   version="1.1"
   id="svg15"
   sodipodi:docname="yad.svg"
   inkscape:version="1.2.2 (b0a8486541, 2022-12-01)"
   xml:space="preserve"
   xmlns:inkscape="http://www.inkscape.org/namespaces/inkscape"
   xmlns:sodipodi="http://sodipodi.sourceforge.net/DTD/sodipodi-0.dtd"
   xmlns="http://www.w3.org/2000/svg"
   xmlns:svg="http://www.w3.org/2000/svg"><sodipodi:namedview
     id="namedview17"
     pagecolor="#ffffff"
     bordercolor="#000000"
     borderopacity="0.25"
     inkscape:showpageshadow="2"
     inkscape:pageopacity="0.0"
     inkscape:pagecheckerboard="0"
     inkscape:deskcolor="#d1d1d1"
     showgrid="false"
     inkscape:zoom="6.828125"
     inkscape:cx="25.043478"
     inkscape:cy="58.654462"
     inkscape:window-width="2560"
     inkscape:window-height="1000"
     inkscape:window-x="1680"
     inkscape:window-y="0"
     inkscape:window-maximized="1"
     inkscape:current-layer="svg15" /><defs
     id="defs7"><radialGradient
       id="a"
       cx="8.4659996"
       cy="11.641"
       r="7.408"
       gradientTransform="matrix(1,0,0,0.5,0,5.82)"
       gradientUnits="userSpaceOnUse"><stop
         stop-color="#4d8e34"
         offset="0"
         id="stop2" /><stop
         stop-color="#5eab40"
         offset="1"
         id="stop4" /></radialGradient><radialGradient
       fx="0"
       fy="0"
       cx="0"
       cy="0"
       r="1"
       gradientUnits="userSpaceOnUse"
       gradientTransform="matrix(0,16.500002,-16.500002,0,9.000002,0.749997)"
       spreadMethod="pad"
       id="radialGradient2771-6"><stop
         style="stop-opacity:1;stop-color:#10d996"
         offset="0"
         id="stop2767-7" /><stop
         style="stop-opacity:1;stop-color:#0bae84"
         offset="1"
         id="stop2769-5" /></radialGradient></defs><g
     id="g2755"
     transform="matrix(0.35277082,0,0,0.35277082,-1.1961624e-4,-9.2306512e-6)"><g
       id="g2757"><g
         id="g2759"><g
           id="g2765"><path
             d="m 7.195,0.836 c 0.09,0 0.176,-0.012 0.258,-0.035 1.078,-0.071 2.156,-0.067 3.231,0.008 0.976,0.078 1.921,0.289 2.836,0.636 1.519,0.625 2.558,1.711 3.121,3.254 0.316,0.93 0.507,1.887 0.566,2.867 0.078,1.235 0.051,2.465 -0.086,3.696 -0.105,0.863 -0.328,1.691 -0.672,2.488 -0.637,1.383 -1.672,2.336 -3.101,2.859 C 12.191,17 11,17.207 9.773,17.227 8.398,17.301 7.035,17.195 5.684,16.918 3.203,16.367 1.668,14.852 1.09,12.375 0.844,11.262 0.73,10.133 0.754,8.992 0.727,7.777 0.855,6.582 1.141,5.402 1.75,3.09 3.219,1.656 5.547,1.102 6.09,0.969 6.641,0.879 7.195,0.836 Z"
             style="fill:url(#radialGradient2771-6);fill-rule:evenodd;stroke:none"
             id="path2773" /></g></g></g><path
       d="M 8.352,3.375 C 8.023,3.371 7.703,3.387 7.402,3.441 7.18,3.48 7.004,3.645 6.969,3.871 6.867,4.535 6.961,5.293 6.961,5.969 6.961,6.332 7.043,6.805 6.945,7.156 6.824,7.605 6.473,8.062 6.25,8.473 5.738,9.422 5.219,10.367 4.715,11.32 4.32,12.066 3.574,12.945 3.992,13.824 4.41,14.711 5.363,14.578 6.18,14.578 h 4.664 c 0.718,0 1.586,0.129 2.285,-0.039 0.652,-0.16 1.101,-0.832 0.984,-1.496 C 14.035,12.605 13.766,12.203 13.551,11.82 13.27,11.328 13.02,10.816 12.742,10.32 12.328,9.586 11.934,8.84 11.539,8.098 11.379,7.793 11.09,7.438 11.039,7.094 10.918,6.297 11.031,5.395 11.031,4.59 11.031,4.281 11.117,3.84 10.891,3.598 10.664,3.359 10.266,3.43 9.969,3.43 9.457,3.43 8.895,3.379 8.352,3.375 Z m -0.2,4.121 C 8.629,7.5 8.812,8.266 8.277,8.422 7.703,8.586 7.43,7.699 7.996,7.523 8.051,7.504 8.102,7.496 8.152,7.496 Z M 8.141,9.156 C 8.984,9.145 9.223,10.465 8.309,10.672 7.352,10.895 6.996,9.387 7.965,9.176 8.023,9.164 8.086,9.156 8.141,9.156 Z m 1.351,1.192 c 0.465,0.007 0.649,0.757 0.133,0.922 C 9.039,11.453 8.75,10.555 9.34,10.371 9.395,10.355 9.445,10.348 9.492,10.348 Z m -2.82,0.586 c 0.32,-0.008 0.68,0.14 0.949,0.242 0.758,0.281 1.508,0.722 2.348,0.64 0.343,-0.035 0.687,-0.152 1,-0.3 0.25,-0.118 0.5,-0.297 0.785,-0.18 0.215,0.09 0.308,0.293 0.418,0.484 0.223,0.391 0.816,1.2 0.144,1.492 -0.433,0.188 -1.191,0.043 -1.66,0.043 H 7.18 c -0.426,0 -1.106,0.129 -1.5,-0.043 -0.766,-0.332 0.09,-1.41 0.328,-1.835 0.113,-0.196 0.219,-0.438 0.453,-0.512 0.066,-0.02 0.141,-0.031 0.211,-0.031 z"
       style="fill:#dbf7ee;fill-opacity:1;fill-rule:nonzero;stroke:none"
       id="path2775" /></g></svg>
